assets/skill/back-express.svg

<svg width="57" height="57" viewBox="0 0 57 57" fill="none" xmlns="http://www.w3.org/2000/svg">
<rect width="56.7516" height="56.7516" rx="8.25478" fill="url(#paint0_linear_551_3061)"/>
<g clip-path="url(#clip0_551_3061)">
<path d="M52.3484 41.6716C50.5672 42.1248 49.4656 41.6912 48.4774 40.2068C46.2586 36.8826 43.8094 33.7107 41.4461 30.4802C41.1414 30.0623 40.825 29.6521 40.4305 29.1326C37.6336 32.906 34.8406 36.4998 32.2195 40.238C31.282 41.574 30.2977 42.156 28.5477 41.6834L39.0633 27.5701L29.2742 14.824C30.9578 14.4959 32.1219 14.6638 33.1531 16.1716C35.4305 19.4998 37.9422 22.6677 40.4461 26.0193C42.9656 22.6795 45.4461 19.5076 47.7899 16.2107C48.7313 14.8748 49.743 14.367 51.4344 14.8591C50.1531 16.5584 48.8992 18.2302 47.6375 19.8904C45.9344 22.1287 44.2625 24.3943 42.4969 26.5857C41.868 27.367 41.9695 27.8748 42.532 28.613C45.7977 32.906 49.0242 37.242 52.3484 41.6716Z" fill="black"/>
<path d="M3.38751 27.3356C3.66876 25.9254 3.85626 24.4879 4.24689 23.1051C6.59064 14.734 16.2 11.2535 22.8016 16.441C26.6688 19.484 27.6297 23.7731 27.4383 28.609H5.64142C5.31329 37.2848 11.5594 42.5231 19.5203 39.8512C22.3133 38.9137 23.9578 36.7262 24.782 33.9918C25.2 32.6207 25.8914 32.4059 27.1805 32.7965C26.5203 36.2184 25.0242 39.0778 21.8992 40.8668C17.2117 43.5465 10.5203 42.6793 7.00079 38.9567C4.92267 36.7692 4.03986 34.0465 3.64923 31.1051C3.59064 30.6364 3.46954 30.1754 3.37579 29.7106C3.38361 28.9189 3.38751 28.1272 3.38751 27.3356ZM5.68048 26.7535H25.3797C25.2508 20.4801 21.3445 16.0231 16.0047 15.984C10.1453 15.9371 5.93439 20.2887 5.68048 26.7535Z" fill="black"/>
</g>
<defs>
<linearGradient id="paint0_linear_551_3061" x1="28.3758" y1="0" x2="28.3758" y2="56.7516" gradientUnits="userSpaceOnUse">
<stop stop-color="#FDFDFD"/>
<stop offset="1" stop-color="#F5F4F4"/>
</linearGradient>
<clipPath id="clip0_551_3061">
<rect width="50" height="50" fill="white" transform="translate(3.37579 3.37573)"/>
</clipPath>
</defs>
</svg>

<svg xmlns="http://www.w3.org/2000/svg" width="57" height="57" fill="none" viewBox="0 0 57 57"><rect width="56.752" height="56.752" fill="url(#paint0_linear_551_3061)" rx="8.255"/><g fill="#000" clip-path="url(#clip0_551_3061)"><path d="M52.348 41.672c-1.78.453-2.882.02-3.87-1.465-2.22-3.324-4.669-6.496-7.032-9.727-.305-.418-.621-.828-1.015-1.347-2.797 3.773-5.59 7.367-8.211 11.105-.938 1.336-1.922 1.918-3.672 1.445L39.063 27.57l-9.789-12.746c1.684-.328 2.848-.16 3.88 1.348 2.276 3.328 4.788 6.496 7.292 9.847 2.52-3.34 5-6.511 7.344-9.808.941-1.336 1.953-1.844 3.644-1.352-1.28 1.7-2.535 3.371-3.796 5.031-1.704 2.239-3.375 4.504-5.141 6.696-.629.781-.528 1.289.035 2.027 3.266 4.293 6.492 8.629 9.816 13.059M3.388 27.336c.28-1.41.468-2.848.859-4.23C6.59 14.733 16.2 11.252 22.802 16.44c3.867 3.043 4.828 7.332 4.636 12.168H5.641c-.328 8.676 5.918 13.914 13.88 11.242 2.792-.937 4.437-3.125 5.261-5.86.418-1.37 1.11-1.585 2.398-1.194-.66 3.421-2.156 6.28-5.28 8.07-4.688 2.68-11.38 1.812-14.9-1.91-2.077-2.188-2.96-4.91-3.35-7.852-.06-.469-.18-.93-.274-1.394q.012-1.188.012-2.375m2.292-.582h19.7c-.13-6.274-4.035-10.73-9.375-10.77-5.86-.047-10.07 4.305-10.325 10.77"/></g><defs><linearGradient id="paint0_linear_551_3061" x1="28.376" x2="28.376" y1="0" y2="56.752" gradientUnits="userSpaceOnUse"><stop stop-color="#fdfdfd"/><stop offset="1" stop-color="#f5f4f4"/></linearGradient><clipPath id="clip0_551_3061"><path fill="#fff" d="M3.376 3.376h50v50h-50z"/></clipPath></defs></svg>
